public/6.svg

<svg width="78" height="119" viewBox="0 0 78 119" fill="none" xmlns="http://www.w3.org/2000/svg">
<g clip-path="url(#clip0_9_84532)">
<path d="M70.6642 57.1513V112.96C70.7142 113.391 70.6519 113.829 70.4834 114.229C70.315 114.629 70.0462 114.977 69.7036 115.241C69.4129 115.391 69.0867 115.458 68.7607 115.434C68.4348 115.41 68.1217 115.296 67.8559 115.104L3.82761 77.796C2.93349 77.2748 2.1912 76.5253 1.67528 75.6227C1.15937 74.7201 0.888036 73.6963 0.888673 72.6543V16.5L70.6642 57.1513Z" fill="white"/>
<path d="M70.6652 50.5478V57.1496L0.889601 16.4955V9.89193C0.835446 9.4512 0.900675 9.00389 1.07828 8.59756C1.25589 8.19122 1.53929 7.84105 1.89833 7.58425C2.18584 7.45109 2.50292 7.3964 2.81793 7.42564C3.13293 7.45487 3.43483 7.56701 3.69345 7.75084L67.8568 45.1333C68.7118 45.7514 69.4112 46.5632 69.8989 47.5036C70.3867 48.4439 70.6492 49.4866 70.6652 50.5478Z" fill="#005BEA"/>
<path d="M68.9709 116.337C68.4207 116.325 67.8833 116.167 67.4126 115.879L3.38442 78.5743C2.356 77.9731 1.50204 77.1098 0.9081 76.0709C0.314164 75.032 0.00101336 73.8539 2.14521e-05 72.6545V9.89026C-0.0586908 9.28572 0.0485276 8.67652 0.309949 8.12936C0.57137 7.5822 0.976947 7.11816 1.48222 6.78803C1.90198 6.58153 2.3681 6.48977 2.83399 6.52189C3.29988 6.55402 3.74923 6.70891 4.13726 6.9711L68.3025 44.3554C69.2935 45.0524 70.1055 45.9777 70.6714 47.0546C71.2372 48.1316 71.5405 49.3291 71.5561 50.548V112.959C71.6088 113.547 71.5078 114.139 71.263 114.675C71.0182 115.211 70.6382 115.674 70.161 116.015C69.8007 116.23 69.3892 116.341 68.9709 116.337ZM2.5843 8.31031C2.49407 8.3082 2.40478 8.3293 2.32486 8.37164C2.05727 8.51444 1.78064 8.98403 1.78064 9.88935V72.6518C1.78112 73.5358 2.0117 74.4042 2.44932 75.17C2.88694 75.9358 3.51627 76.5722 4.27423 77.0154L68.3034 114.324C68.5283 114.454 68.951 114.649 69.2468 114.467L69.2576 114.461C69.508 114.315 69.7756 113.842 69.7756 112.957V50.5462C69.7607 49.6428 69.5402 48.755 69.1313 47.9512C68.7223 47.1475 68.1359 46.4493 67.4171 45.9106L3.25376 8.52817C3.05151 8.40167 2.82168 8.32688 2.5843 8.31031Z" fill="#005BEA"/>
<path d="M70.6651 58.0476C70.5093 58.0474 70.3562 58.0057 70.2215 57.9267L0.443283 17.2754C0.338577 17.2182 0.246296 17.1404 0.171889 17.0466C0.0974817 16.9528 0.0424975 16.845 0.0101156 16.7293C-0.0222663 16.6137 -0.0313165 16.4927 -0.0165698 16.3735C-0.0018231 16.2543 0.0363784 16.1393 0.0959296 16.0352C0.155481 15.9312 0.235148 15.8403 0.330119 15.7678C0.42509 15.6953 0.533481 15.6428 0.648904 15.6134C0.764327 15.5839 0.884441 15.5781 1.00213 15.5963C1.11981 15.6145 1.23269 15.6563 1.33409 15.7193L71.1087 56.3706C71.2787 56.4694 71.4117 56.6221 71.4869 56.805C71.5621 56.988 71.5753 57.1909 71.5246 57.3822C71.4738 57.5735 71.3618 57.7425 71.2061 57.863C71.0504 57.9835 70.8595 58.0487 70.6632 58.0485L70.6651 58.0476Z" fill="#005BEA"/>
<path d="M69.7108 116.143C69.5156 116.143 69.3258 116.078 69.1707 115.959C69.0155 115.839 68.9035 115.671 68.852 115.481C68.8005 115.291 68.8122 115.09 68.8854 114.907C68.9587 114.724 69.0893 114.571 69.2572 114.471L75.6976 110.626C75.948 110.476 76.2174 110.001 76.2174 109.118V46.6992C76.203 45.7965 75.9827 44.9093 75.5737 44.1064C75.1647 43.3034 74.5779 42.6064 73.8589 42.0692L9.69377 4.68488C9.56015 4.58208 9.40316 4.51466 9.23712 4.48876C9.07108 4.46286 8.9013 4.4793 8.74317 4.53658L2.29826 8.38303C2.09377 8.5032 1.8504 8.53648 1.6216 8.47553C1.3928 8.41459 1.19734 8.26443 1.07826 8.05807C0.959173 7.85171 0.926184 7.60606 0.986574 7.37517C1.04696 7.14428 1.19577 6.94705 1.40025 6.82687L7.84063 2.98226C8.26762 2.74885 8.75004 2.63861 9.23502 2.66364C9.72 2.68867 10.1887 2.848 10.5899 3.12415L74.7506 40.5048C75.7421 41.1999 76.5547 42.1241 77.1207 43.2003C77.6867 44.2765 77.9896 45.4736 78.0043 46.6919V109.107C78.0557 109.695 77.9542 110.286 77.7099 110.822C77.4655 111.357 77.0867 111.819 76.611 112.162L70.1662 116.007C70.0296 116.093 69.8721 116.14 69.7108 116.143Z" fill="#005BEA"/>
<path d="M12.5994 18.3108C12.5994 19.2262 11.9644 19.5923 11.1825 19.1346C10.77 18.8632 10.4268 18.4975 10.1806 18.0671C9.93445 17.6367 9.79222 17.1538 9.76562 16.6576C9.76562 15.7422 10.4006 15.3761 11.1825 15.8338C11.595 16.1051 11.9384 16.4709 12.1846 16.9012C12.4308 17.3316 12.5729 17.8146 12.5994 18.3108Z" fill="white"/>
<path d="M17.6072 21.2288C17.6072 22.1441 16.9722 22.5103 16.1903 22.0526C15.7778 21.7812 15.4346 21.4154 15.1884 20.9851C14.9423 20.5547 14.8 20.0718 14.7734 19.5756C14.7734 18.6602 15.4084 18.294 16.1903 18.7517C16.6028 19.0231 16.9461 19.3889 17.1923 19.8193C17.4385 20.2497 17.5806 20.7325 17.6072 21.2288Z" fill="#005BEA"/>
<path d="M56.9902 73.7221C56.9185 73.7221 56.8482 73.7032 56.7861 73.6672L14.3573 48.9472C14.295 48.9109 14.2434 48.8588 14.2074 48.7959C14.1714 48.7331 14.1524 48.6619 14.1523 48.5893V31.0331C14.1525 30.9608 14.1715 30.8897 14.2074 30.8271C14.2433 30.7645 14.2949 30.7125 14.357 30.6763C14.4191 30.6402 14.4896 30.6211 14.5613 30.6211C14.633 30.6211 14.7034 30.64 14.7656 30.6761L57.1907 55.3961C57.2528 55.4323 57.3043 55.4843 57.3402 55.547C57.376 55.6097 57.3948 55.6808 57.3948 55.7531V73.3065C57.3948 73.4158 57.3517 73.5205 57.2752 73.5978C57.1986 73.675 57.0949 73.7184 56.9866 73.7184L56.9902 73.7221ZM14.9705 48.3513L56.582 72.5953V55.992L14.9705 31.7471V48.3513Z" fill="#005BEA"/>
<path d="M56.9914 99.7459C56.9197 99.7459 56.8493 99.7266 56.7873 99.6901L47.3935 94.217C47.3314 94.1808 47.2799 94.1288 47.244 94.0661C47.2082 94.0034 47.1894 93.9323 47.1895 93.86V76.3066C47.1896 76.2342 47.2086 76.1632 47.2445 76.1005C47.2804 76.0379 47.3321 75.9859 47.3942 75.9498C47.4563 75.9136 47.5267 75.8946 47.5984 75.8945C47.6701 75.8945 47.7405 75.9135 47.8027 75.9496L57.1955 81.4227C57.2576 81.4588 57.3091 81.5109 57.345 81.5735C57.3808 81.6362 57.3996 81.7073 57.3996 81.7797V99.3331C57.3996 99.4054 57.3808 99.4765 57.345 99.5392C57.3091 99.6019 57.2576 99.6539 57.1955 99.6901C57.1336 99.7267 57.0632 99.7459 56.9914 99.7459ZM48.0113 93.622L56.5878 98.6191V82.0177L48.0058 77.0206L48.0113 93.622Z" fill="#005BEA"/>
<path d="M42.2044 91.1308C42.1326 91.1308 42.0622 91.1115 42.0003 91.075L32.6093 85.6037C32.547 85.5676 32.4952 85.5157 32.4592 85.453C32.4232 85.3903 32.4043 85.3191 32.4043 85.2467V67.6933C32.4044 67.6209 32.4234 67.5499 32.4593 67.4873C32.4952 67.4246 32.5468 67.3727 32.6089 67.3365C32.671 67.3003 32.7414 67.2813 32.8131 67.2813C32.8848 67.2812 32.9553 67.3002 33.0174 67.3363L42.4084 72.8075C42.4706 72.8436 42.5222 72.8957 42.558 72.9584C42.5939 73.0211 42.6127 73.0922 42.6125 73.1645V90.718C42.6125 90.8273 42.5696 90.9322 42.493 91.0096C42.4165 91.0869 42.3127 91.1306 42.2044 91.1308ZM33.2242 85.0087L41.7989 90.004V73.4025L33.2242 68.4073V85.0087Z" fill="#005BEA"/>
<path d="M27.2739 64.876C27.2023 64.876 27.132 64.857 27.0698 64.8211L14.359 57.4147C14.3103 57.3888 14.2672 57.3533 14.2325 57.3103C14.1978 57.2672 14.172 57.2175 14.1568 57.1642C14.1415 57.1109 14.137 57.055 14.1436 56.9999C14.1502 56.9447 14.1678 56.8916 14.1953 56.8435C14.2228 56.7953 14.2595 56.7533 14.3035 56.7199C14.3474 56.6865 14.3975 56.6623 14.4509 56.6489C14.5042 56.6355 14.5599 56.6331 14.6142 56.6419C14.6685 56.6506 14.7205 56.6703 14.7671 56.6998L27.479 64.1062C27.5567 64.1518 27.6174 64.2219 27.6517 64.3058C27.686 64.3897 27.6919 64.4827 27.6685 64.5703C27.6452 64.658 27.5939 64.7354 27.5226 64.7907C27.4513 64.8459 27.3638 64.8759 27.2739 64.876Z" fill="#005BEA"/>
<path d="M27.2739 69.2667C27.2023 69.2666 27.132 69.2477 27.0698 69.2117L14.359 61.8054C14.3103 61.7795 14.2672 61.7439 14.2325 61.7009C14.1978 61.6578 14.172 61.6082 14.1568 61.5548C14.1415 61.5015 14.137 61.4456 14.1436 61.3905C14.1502 61.3354 14.1678 61.2822 14.1953 61.2341C14.2228 61.186 14.2595 61.144 14.3035 61.1105C14.3474 61.0771 14.3975 61.053 14.4509 61.0396C14.5042 61.0262 14.5599 61.0238 14.6142 61.0325C14.6685 61.0412 14.7205 61.0609 14.7671 61.0904L27.479 68.4968C27.5567 68.5424 27.6174 68.6126 27.6517 68.6965C27.686 68.7804 27.6919 68.8733 27.6685 68.961C27.6452 69.0486 27.5939 69.1261 27.5226 69.1813C27.4513 69.2366 27.3638 69.2666 27.2739 69.2667Z" fill="#005BEA"/>
<path d="M27.2736 73.6571C27.2019 73.6571 27.1315 73.6378 27.0696 73.6013L14.3587 66.1949C14.2649 66.1403 14.1963 66.0503 14.1682 65.9447C14.1402 65.8392 14.1549 65.7267 14.209 65.632C14.2631 65.5373 14.3523 65.4682 14.4569 65.4399C14.5615 65.4115 14.673 65.4263 14.7668 65.4809L27.4787 72.8873C27.5565 72.9329 27.6172 73.003 27.6515 73.0869C27.6857 73.1708 27.6916 73.2638 27.6683 73.3514C27.6449 73.4391 27.5937 73.5165 27.5223 73.5718C27.451 73.627 27.3636 73.657 27.2736 73.6571Z" fill="#005BEA"/>
<path d="M27.2736 78.04C27.2019 78.0399 27.1315 78.0206 27.0696 77.9841L14.3587 70.5777C14.2649 70.5231 14.1963 70.4331 14.1682 70.3275C14.1402 70.222 14.1549 70.1095 14.209 70.0148C14.2631 69.9201 14.3523 69.851 14.4569 69.8227C14.5615 69.7943 14.673 69.8091 14.7668 69.8638L27.4787 77.2701C27.5565 77.3157 27.6172 77.3859 27.6515 77.4698C27.6857 77.5537 27.6916 77.6466 27.6683 77.7343C27.6449 77.8219 27.5937 77.8993 27.5223 77.9546C27.451 78.0099 27.3636 78.0399 27.2736 78.04Z" fill="#005BEA"/>
<path d="M27.2736 82.4306C27.2019 82.4305 27.1315 82.4113 27.0696 82.3748L14.3587 74.9684C14.2649 74.9137 14.1963 74.8237 14.1682 74.7182C14.1402 74.6126 14.1549 74.5001 14.209 74.4054C14.2631 74.3107 14.3523 74.2416 14.4569 74.2133C14.5615 74.185 14.673 74.1998 14.7668 74.2544L27.4787 81.6562C27.5565 81.7017 27.6172 81.7719 27.6515 81.8558C27.6857 81.9397 27.6916 82.0327 27.6683 82.1203C27.6449 82.208 27.5937 82.2854 27.5223 82.3407C27.451 82.3959 27.3636 82.4259 27.2736 82.426V82.4306Z" fill="#005BEA"/>
<path d="M56.9918 56.168C56.969 56.1679 56.9461 56.1657 56.9237 56.1616L14.4949 48.9941C14.4404 48.9869 14.3879 48.9687 14.3405 48.9406C14.2931 48.9125 14.2518 48.875 14.2191 48.8305C14.1863 48.7859 14.1628 48.7351 14.15 48.6811C14.1371 48.6272 14.1352 48.5712 14.1443 48.5165C14.1534 48.4617 14.1733 48.4094 14.2029 48.3627C14.2325 48.3159 14.271 48.2756 14.3164 48.2442C14.3617 48.2129 14.4129 48.191 14.4668 48.18C14.5206 48.1691 14.5762 48.1692 14.6301 48.1803L57.0589 55.3478C57.1671 55.3568 57.2674 55.4088 57.3377 55.4924C57.4079 55.576 57.4424 55.6843 57.4335 55.7936C57.4246 55.9028 57.373 56.004 57.2902 56.0749C57.2073 56.1458 57.1 56.1806 56.9918 56.1716V56.168Z" fill="#005BEA"/>
<path d="M56.9918 73.7208C56.8841 73.7212 56.7807 73.6784 56.7042 73.6018L14.2754 31.3284C14.2045 31.2503 14.1661 31.1477 14.168 31.0418C14.17 30.9359 14.2122 30.8348 14.286 30.7595C14.3597 30.6841 14.4594 30.6402 14.5643 30.6369C14.6692 30.6336 14.7713 30.6711 14.8496 30.7417L57.282 73.0123C57.3395 73.0699 57.3787 73.1434 57.3947 73.2235C57.4108 73.3036 57.4029 73.3866 57.3722 73.4622C57.3414 73.5378 57.289 73.6024 57.2218 73.648C57.1546 73.6935 57.0754 73.7179 56.9945 73.7181L56.9918 73.7208Z" fill="#005BEA"/>
</g>
<defs>
<clipPath id="clip0_9_84532">
<rect width="78" height="119" fill="white"/>
</clipPath>
</defs>
</svg>

<svg xmlns="http://www.w3.org/2000/svg" width="78" height="119" fill="none" viewBox="0 0 78 119"><g clip-path="url(#a)"><path fill="#fff" d="M70.664 57.151v55.809a2.503 2.503 0 0 1-.96 2.281 1.77 1.77 0 0 1-1.848-.137L3.828 77.796a5.9 5.9 0 0 1-2.153-2.173 6 6 0 0 1-.786-2.969V16.5z"/><path fill="#005bea" d="M70.665 50.548v6.602L.89 16.496V9.892c-.055-.44.01-.888.188-1.294s.461-.757.82-1.014a1.79 1.79 0 0 1 1.795.167l64.164 37.382a6.8 6.8 0 0 1 2.042 2.37c.488.94.75 1.984.766 3.045"/><path fill="#005bea" d="M68.97 116.337a3.1 3.1 0 0 1-1.557-.458L3.384 78.574a6.8 6.8 0 0 1-2.476-2.503A6.9 6.9 0 0 1 0 72.655V9.89a3.34 3.34 0 0 1 .31-1.76 3.3 3.3 0 0 1 1.172-1.342 2.65 2.65 0 0 1 2.655.183l64.165 37.384a7.65 7.65 0 0 1 2.37 2.7 7.7 7.7 0 0 1 .884 3.493v62.411a3.4 3.4 0 0 1-.293 1.716 3.36 3.36 0 0 1-1.102 1.34c-.36.215-.772.326-1.19.322M2.585 8.31a.5.5 0 0 0-.26.062c-.267.142-.543.612-.543 1.517v62.763c0 .884.23 1.752.668 2.518a5 5 0 0 0 1.825 1.845l64.03 37.309c.224.13.647.325.943.143l.01-.006c.251-.146.519-.619.519-1.504v-62.41a5.94 5.94 0 0 0-.645-2.596 5.9 5.9 0 0 0-1.714-2.04L3.254 8.528a1.45 1.45 0 0 0-.67-.218"/><path fill="#005bea" d="M70.665 58.048a.9.9 0 0 1-.444-.121L.444 17.275a.9.9 0 0 1-.433-.546.91.91 0 0 1 .32-.961.89.89 0 0 1 1.004-.049L71.11 56.371a.896.896 0 0 1 .416 1.011.9.9 0 0 1-.319.481.9.9 0 0 1-.543.185z"/><path fill="#005bea" d="M69.71 116.143a.89.89 0 0 1-.858-.662.91.91 0 0 1 .405-1.01l6.44-3.845c.251-.15.52-.625.52-1.508V46.699a5.9 5.9 0 0 0-.643-2.593 5.9 5.9 0 0 0-1.715-2.037L9.694 4.685a1 1 0 0 0-.95-.148L2.297 8.383a.885.885 0 0 1-1.22-.325.91.91 0 0 1 .322-1.231l6.44-3.845a2.62 2.62 0 0 1 2.75.142l64.16 37.38a7.6 7.6 0 0 1 2.37 2.696 7.7 7.7 0 0 1 .884 3.492v62.415a3.4 3.4 0 0 1-.294 1.715 3.4 3.4 0 0 1-1.099 1.34l-6.445 3.845a.9.9 0 0 1-.455.136"/><path fill="#fff" d="M12.6 18.31c0 .916-.636 1.282-1.418.825a3.15 3.15 0 0 1-1.001-1.068 3.2 3.2 0 0 1-.415-1.41c0-.915.635-1.28 1.416-.823.413.271.756.637 1.003 1.067s.388.914.414 1.41"/><path fill="#005bea" d="M17.607 21.229c0 .915-.635 1.281-1.417.824a3.15 3.15 0 0 1-1.002-1.068 3.2 3.2 0 0 1-.415-1.41c0-.915.635-1.281 1.417-.823a3.15 3.15 0 0 1 1.002 1.067c.247.43.389.914.415 1.41M56.99 73.722a.4.4 0 0 1-.204-.055l-42.429-24.72a.41.41 0 0 1-.205-.358V31.033a.42.42 0 0 1 .205-.357.41.41 0 0 1 .409 0l42.425 24.72a.41.41 0 0 1 .204.357v17.554c0 .109-.043.213-.12.29a.4.4 0 0 1-.288.121zm-42.02-25.37 41.612 24.243V55.992L14.971 31.747zM56.991 99.746a.4.4 0 0 1-.204-.056l-9.393-5.473a.41.41 0 0 1-.204-.357V76.307a.42.42 0 0 1 .204-.357.4.4 0 0 1 .409 0l9.393 5.473a.41.41 0 0 1 .204.357v17.553a.42.42 0 0 1-.204.357.4.4 0 0 1-.205.056m-8.98-6.124 8.577 4.997V82.018l-8.582-4.997zM42.204 91.13a.4.4 0 0 1-.204-.055l-9.39-5.471a.41.41 0 0 1-.206-.357V67.693a.42.42 0 0 1 .205-.356.4.4 0 0 1 .408 0l9.391 5.47a.41.41 0 0 1 .204.358v17.553a.407.407 0 0 1-.408.413m-8.98-6.121 8.575 4.995V73.403l-8.575-4.996zM27.274 64.876a.4.4 0 0 1-.204-.055l-12.711-7.406a.41.41 0 0 1-.215-.415.41.41 0 0 1 .307-.351.4.4 0 0 1 .316.05l12.712 7.407a.41.41 0 0 1 .19.464.41.41 0 0 1-.395.306M27.274 69.267a.4.4 0 0 1-.204-.055l-12.711-7.407a.41.41 0 0 1-.215-.414.41.41 0 0 1 .307-.351.4.4 0 0 1 .316.05l12.712 7.407a.41.41 0 0 1 .19.464.41.41 0 0 1-.395.306M27.274 73.657a.4.4 0 0 1-.204-.056l-12.711-7.406a.41.41 0 0 1-.15-.563.41.41 0 0 1 .558-.151l12.712 7.406a.41.41 0 0 1 .19.464.41.41 0 0 1-.395.306M27.274 78.04a.4.4 0 0 1-.204-.056l-12.711-7.406a.41.41 0 0 1-.15-.563.41.41 0 0 1 .558-.151l12.712 7.406a.41.41 0 0 1 .19.464.41.41 0 0 1-.395.306M27.274 82.43a.4.4 0 0 1-.204-.055l-12.711-7.407a.412.412 0 0 1 .098-.755.4.4 0 0 1 .31.041l12.712 7.402a.41.41 0 0 1 .19.464.41.41 0 0 1-.395.306z"/><path fill="#005bea" d="M56.992 56.168a.4.4 0 0 1-.068-.006l-42.43-7.168a.41.41 0 0 1-.344-.313.415.415 0 0 1 .317-.501q.082-.015.163 0l42.429 7.168a.4.4 0 0 1 .279.144.416.416 0 0 1-.048.583.4.4 0 0 1-.298.097z"/><path fill="#005bea" d="M56.992 73.72a.4.4 0 0 1-.288-.118L14.275 31.328a.415.415 0 0 1 .011-.569.407.407 0 0 1 .564-.017l42.432 42.27a.414.414 0 0 1-.287.706z"/></g><defs><clipPath id="a"><path fill="#fff" d="M0 0h78v119H0z"/></clipPath></defs></svg>
